X:1
T:The Green Brier Shore
M:4/4
L:1/4
K:D
 z2 z F| AB/2-A/2 G E| D DE/2-G/2 A|
M:3/4
 G- D E| D2 D/2D/2|
M:4/4
 G2 A A| B d2 e/2e/2|
M:3/4
 d/2B/2A/2-G/2A/2-B/2| A2 D|
M:4/4
 G2 A A| B d2 e|
M:3/4
d/2-B/2A/2-G/2 B| A2 D|
M:4/4
 E G A B| A- G E E| G- E D E| D3 z|
